assets/images/hanami_icon.svg

<svg height="187" viewBox="0 0 193 187" width="193" xmlns="http://www.w3.org/2000/svg" xmlns:xlink="http://www.w3.org/1999/xlink"><defs><path id="a" d="m129.659508 33.6583219v9.6408364c0 4.7569639-.989254 9.285492-2.773168 13.3909908 3.352507-2.965435 7.353729-5.3069019 11.87845-6.7769285l9.16789-2.9781259c17.668027-5.7405069 36.672828 3.9426326 42.413335 21.610449 5.740718 17.6678164-3.942633 36.6724053-21.610661 42.4129123l-9.16789 2.980241c-4.52472 1.470026-9.13722 1.929013-13.592141 1.499638 3.8557 2.271667 7.317772 5.355551 10.114206 9.203002l5.666054 7.798544c10.919443 15.030229 7.582799 36.097085-7.446584 47.01547-15.029171 10.9205-36.096027 7.582799-47.01547-7.445315l-5.666054-7.798544c-2.7964344-3.849566-4.6579746-8.094664-5.6275576-12.464556-.9693715 4.369892-2.8309117 8.61499-5.6273466 12.464556l-5.6660537 7.798544c-10.9194423 15.028114-31.9862987 18.365815-47.0156817 7.445315-15.0291715-10.918385-18.3658147-31.985241-7.4463723-47.01547l5.6660537-7.798544c2.7964348-3.847451 6.2585062-6.931335 10.1142062-9.203002-4.454921.429375-9.0674203-.029612-13.5921411-1.499638l-9.1678898-2.980241c-17.66796449-5.740507-27.35140002-24.7450959-21.61074511-42.4129123s24.74539181-27.3509559 42.41341971-21.610449l9.1678898 2.9781259c4.5247208 1.4700266 8.5259429 3.8114935 11.8782381 6.7769285-1.7837028-4.1054988-2.7729566-8.6340269-2.7729566-13.3909908v-9.6408364c0-18.5773293 15.0822616-33.6583219 33.6593794-33.6583219 18.5773296 0 33.6595906 15.0809926 33.6595906 33.6583219z"/></defs><g fill="none" fill-rule="evenodd" transform="translate(.2864 .942)" xlink:href="#a"><path d="m46.024723 115.438335c-4.454921.429375-9.0674203-.029612-13.5921411-1.499638l-9.1678898-2.980241c-17.66796449-5.740507-27.35140002-24.7450959-21.61074511-42.4129123s24.74539181-27.3509559 42.41341971-21.610449l9.1678898 2.9781259c4.5247208 1.4700266 8.5259429 3.8114935 11.8782381 6.7769285-1.7837028-4.1054988-2.7729566-8.6340269-2.7729566-13.3909908v-9.6408364c0-18.5773293 15.0822616-33.6583219 33.6593794-33.6583219 18.5773296 0 33.6595906 15.0809926 33.6595906 33.6583219v9.6408364c0 4.7569639-.989254 9.285492-2.773168 13.3909908 3.352507-2.965435 7.353729-5.3069019 11.87845-6.7769285l9.16789-2.9781259c17.668027-5.7405069 36.672828 3.9426326 42.413335 21.610449 5.740718 17.6678164-3.942633 36.6724053-21.610661 42.4129123l-9.16789 2.980241c-4.52472 1.470026-9.13722 1.929013-13.592141 1.499638 3.8557 2.271667 7.317772 5.355551 10.114206 9.203002l5.666054 7.798544c10.919443 15.030229 7.582799 36.097085-7.446584 47.01547-15.029171 10.9205-36.096027 7.582799-47.01547-7.445315l-5.666054-7.798544c-2.7964344-3.849566-4.6579746-8.094664-5.6275576-12.464556-.9693715 4.369892-2.8309117 8.61499-5.6273466 12.464556l-5.6660537 7.798544c-10.9194423 15.028114-31.9862987 18.365815-47.0156817 7.445315-15.0291715-10.918385-18.3658147-31.985241-7.4463723-47.01547l5.6660537-7.798544c2.7964348-3.847451 6.2585062-6.931335 10.1142062-9.203002z" fill="#ff6c89"/><path d="m95.9999174 54.8393961c23.8131626 0 43.1464446 19.3324365 43.1464446 43.1468678 0 23.8123161-19.333282 43.1468681-43.1464446 43.1468681-23.8129508 0-43.1462333-19.334552-43.1462333-43.1468681 0-23.8144313 19.3332825-43.1468678 43.1462333-43.1468678z" fill="#ffc9c4"/><g fill="#000"><path d="m74.6927804 97.1698175c0 1.7999894-1.4622006 3.2636705-3.2632476 3.2636705-1.8008355 0-3.2630361-1.4636811-3.2630361-3.2636705 0-6.4702323 5.2523311-11.7221404 11.7219289-11.7221404 6.4693862 0 11.7219288 5.2519081 11.7219288 11.7221404 0 1.7999894-1.4622006 3.2636705-3.2632476 3.2636705s-3.2632476-1.4636811-3.2632476-3.2636705c0-2.8681383-2.3279299-5.1947991-5.1954336-5.1947991-2.8675038 0-5.1956452 2.3266608-5.1956452 5.1947991z"/><path d="m106.997832 97.1698175c0 1.7999894-1.462201 3.2636705-3.263036 3.2636705-1.801047 0-3.263248-1.4636811-3.263248-3.2636705 0-6.4702323 5.252331-11.7221404 11.721929-11.7221404s11.721929 5.2519081 11.721929 11.7221404c0 1.7999894-1.462201 3.2636705-3.263248 3.2636705s-3.263247-1.4636811-3.263247-3.2636705c0-2.8681383-2.32793-5.1947991-5.195434-5.1947991s-5.195645 2.3266608-5.195645 5.1947991z"/></g></g></svg>

<?xml version="1.0" encoding="UTF-8"?>
<svg width="193px" height="187px" viewBox="0 0 193 187" version="1.1" xmlns="http://www.w3.org/2000/svg" xmlns:xlink="http://www.w3.org/1999/xlink">
    <title>hanami_icon</title>
    <defs>
        <path d="M129.659508,33.6583219 L129.659508,43.2991583 C129.659508,48.0561222 128.670254,52.5846503 126.88634,56.6901491 C130.238847,53.7247141 134.240069,51.3832472 138.76479,49.9132206 L147.93268,46.9350947 C165.600707,41.1945878 184.605508,50.8777273 190.346015,68.5455437 C196.086733,86.2133601 186.403382,105.217949 168.735354,110.958456 L159.567464,113.938697 C155.042744,115.408723 150.430244,115.86771 145.975323,115.438335 C149.831023,117.710002 153.293095,120.793886 156.089529,124.641337 L161.755583,132.439881 C172.675026,147.47011 169.338382,168.536966 154.308999,179.455351 C139.279828,190.375851 118.212972,187.03815 107.293529,172.010036 L101.627475,164.211492 C98.8310406,160.361926 96.9695004,156.116828 95.9999174,151.746936 C95.0305459,156.116828 93.1690057,160.361926 90.3725708,164.211492 L84.7065171,172.010036 C73.7870748,187.03815 52.7202184,190.375851 37.6908354,179.455351 C22.6616639,168.536966 19.3250207,147.47011 30.2444631,132.439881 L35.9105168,124.641337 C38.7069516,120.793886 42.169023,117.710002 46.024723,115.438335 C41.569802,115.86771 36.9573027,115.408723 32.4325819,113.938697 L23.2646921,110.958456 C5.59672761,105.217949 -4.08670792,86.2133601 1.65394699,68.5455437 C7.3946019,50.8777273 26.3993388,41.1945878 44.0673667,46.9350947 L53.2352565,49.9132206 C57.7599773,51.3832472 61.7611994,53.7247141 65.1134946,56.6901491 C63.3297918,52.5846503 62.340538,48.0561222 62.340538,43.2991583 L62.340538,33.6583219 C62.340538,15.0809926 77.4227996,0 95.9999174,0 C114.577247,0 129.659508,15.0809926 129.659508,33.6583219 Z" id="path-1"></path>
    </defs>
    <g id="hanami_icon" stroke="none" fill="none" transform="translate(0.2864, 0.942)" xlink:href="#path-1" fill-rule="evenodd">
        <path d="M46.024723,115.438335 C41.569802,115.86771 36.9573027,115.408723 32.4325819,113.938697 L23.2646921,110.958456 C5.59672761,105.217949 -4.08670792,86.2133601 1.65394699,68.5455437 C7.3946019,50.8777273 26.3993388,41.1945878 44.0673667,46.9350947 L53.2352565,49.9132206 C57.7599773,51.3832472 61.7611994,53.7247141 65.1134946,56.6901491 C63.3297918,52.5846503 62.340538,48.0561222 62.340538,43.2991583 L62.340538,33.6583219 C62.340538,15.0809926 77.4227996,0 95.9999174,0 C114.577247,0 129.659508,15.0809926 129.659508,33.6583219 L129.659508,43.2991583 C129.659508,48.0561222 128.670254,52.5846503 126.88634,56.6901491 C130.238847,53.7247141 134.240069,51.3832472 138.76479,49.9132206 L147.93268,46.9350947 C165.600707,41.1945878 184.605508,50.8777273 190.346015,68.5455437 C196.086733,86.2133601 186.403382,105.217949 168.735354,110.958456 L159.567464,113.938697 C155.042744,115.408723 150.430244,115.86771 145.975323,115.438335 C149.831023,117.710002 153.293095,120.793886 156.089529,124.641337 L161.755583,132.439881 C172.675026,147.47011 169.338382,168.536966 154.308999,179.455351 C139.279828,190.375851 118.212972,187.03815 107.293529,172.010036 L101.627475,164.211492 C98.8310406,160.361926 96.9695004,156.116828 95.9999174,151.746936 C95.0305459,156.116828 93.1690057,160.361926 90.3725708,164.211492 L84.7065171,172.010036 C73.7870748,187.03815 52.7202184,190.375851 37.6908354,179.455351 C22.6616639,168.536966 19.3250207,147.47011 30.2444631,132.439881 L35.9105168,124.641337 C38.7069516,120.793886 42.169023,117.710002 46.024723,115.438335 Z" id="Fill-15" fill="#FF6C89"></path>
        <path d="M95.9999174,54.8393961 C119.81308,54.8393961 139.146362,74.1718326 139.146362,97.9862639 C139.146362,121.79858 119.81308,141.133132 95.9999174,141.133132 C72.1869666,141.133132 52.8536841,121.79858 52.8536841,97.9862639 C52.8536841,74.1718326 72.1869666,54.8393961 95.9999174,54.8393961 Z" id="Fill-22" fill="#FFC9C4"></path>
        <path d="M74.6927804,97.1698175 C74.6927804,98.9698069 73.2305798,100.433488 71.4295328,100.433488 C69.6286973,100.433488 68.1664967,98.9698069 68.1664967,97.1698175 C68.1664967,90.6995852 73.4188278,85.4476771 79.8884256,85.4476771 C86.3578118,85.4476771 91.6103544,90.6995852 91.6103544,97.1698175 C91.6103544,98.9698069 90.1481538,100.433488 88.3471068,100.433488 C86.5460598,100.433488 85.0838592,98.9698069 85.0838592,97.1698175 C85.0838592,94.3016792 82.7559293,91.9750184 79.8884256,91.9750184 C77.0209218,91.9750184 74.6927804,94.3016792 74.6927804,97.1698175 Z" id="Fill-36" fill="#000000"></path>
        <path d="M106.997832,97.1698175 C106.997832,98.9698069 105.535631,100.433488 103.734796,100.433488 C101.933749,100.433488 100.471548,98.9698069 100.471548,97.1698175 C100.471548,90.6995852 105.723879,85.4476771 112.193477,85.4476771 C118.663075,85.4476771 123.915406,90.6995852 123.915406,97.1698175 C123.915406,98.9698069 122.453205,100.433488 120.652158,100.433488 C118.851111,100.433488 117.388911,98.9698069 117.388911,97.1698175 C117.388911,94.3016792 115.060981,91.9750184 112.193477,91.9750184 C109.325973,91.9750184 106.997832,94.3016792 106.997832,97.1698175 Z" id="Fill-37" fill="#000000"></path>
    </g>
</svg>
